X:366
T:Entemediu (MG 82)
R:Marcha
C:Versin de Chema Castan
S:Msica Tradicional Asturiana, (C) Tello & Tito. Asturies, 2001.
S:http://pagina.de/MusTradAst <telloytito@asturies.org>
A:Asturies
Z:Mtodu de Gaita 82
M:2/4
L:1/8
Q:1/4=200
E:Comp.
K:C
G
|: C2 E2|G4|~A3 G|E2 CD|E2 CD|E2 DE|F2 D2|F2 D2|
|B,2 D2|F4|GF ED|~C2 B,C|~D2 CD|E2 F2|E2 D2|[1 C3 G :|[2 C4|
|: C2 E2|G4|G2 A2|F4|E4|D2 D2|D2 F2|A4|
|B2 A2|G3 F|EF ED|C2 E2|G4|G2 GA|F4|E4|
|D2 D2|cB AG|FE DC|B,2 D2|C4 :|
|.E2 .E2|.E2 E2|F4|~E2 ~D2|C2 G2|ED C2|
|.E2 .E2|.E2 E2|F4|E2 D2|cB AG|FE DC|
|B,2 ~D2|C4|.E2 EE|EEEE|F4|~E2 ~D2|
|C2 G2|ED C2|.E2 EE|EEEE|F4|E2 D2|
|cB AG|FE DC|B,2 ~D2|C4|
